X:54
%%etbk:tnset id:18,pos:2,rep:3x,ant:
%%etbk:wsite http://www.thesession.org/tunes/display/368
%%etbk:color #ffffcc
%%etbk:pldat 2016-07-12T16:22,2016-05-24T17:14,2016-04-23T16:50,2016-04-12T16:35,2016-04-02T15:14,2016-03-31T17:11,2016-03-22T16:39,2016-03-20T10:27,2016-03-14T19:15,2016-02-10T17:38,2016-01-27T18:03,2016-01-16T16:14,2016-01-12T18:07,2016-01-03T14:53,2016-01-02T14:16,2016-01-01T16:02,2015-12-31T14:53,2015-12-24T16:11,2015-07-11T16:29,2015-03-26T18:34,2015-03-25T18:28,2014-12-30T18:34,2014-12-27T14:33,2014-12-20T14:14,2014-12-15T16:27,2014-12-03T17:15,2014-11-26T16:25,2014-11-24T16:33,2014-11-22T15:11,2014-11-19T16:26,2014-11-18T16:30,2014-03-22T15:48,2014-03-20T18:43,2014-02-17T19:05,2013-05-21T15:22
T: Old Torn Petticoat, The
Z: Piano Box Version by Martin Fleischmann
H: Created 2013-02-19 /  Last Modified 2016-03-20
M: 4/4
L: 1/8
R: reel
K: Ador
|:!5!c2!4!B!5!c !3!A!2!G!1!E!2!F | !2!G2!4!B!2!G DG!4!B!2!G | !5!c!3!A!4!B!2!G !3!A!1!EE!2!F | !2!GABG !3!A3!4!B |
| !5!c2!4!B!5!c !3!AG!1!E!2!F | !1!G2!3!BG !5!dGBG | !5!c!3!A!4!B!2!G !3!A!1!EE!2!F | !2!GABG A4:|
|:!3!c!1!def !4!g2 !2!e!5!a | !5!age!1!d !3!c!1!A A2 | !3!c!1!def !4!gedg | !2!e!5!a!5!ag !5!a3!4!a |
| !5!bagb !4!a!3!g!2!ef | !4!ggge !1!d!2!B!1!G!2!B | !3!c!1!A!4!B!2!G !3!A!1!EE!2!F | !2!GABG !3!A4:|


